dist/images/icons/instagram.svg

<svg width="44" height="44" viewBox="0 0 44 44" fill="none" xmlns="http://www.w3.org/2000/svg">
<path d="M22 3.96172C27.8781 3.96172 28.5742 3.9875 30.8859 4.09062C33.0344 4.18516 34.1945 4.54609 34.968 4.84688C35.9906 5.24219 36.7297 5.72344 37.4945 6.48828C38.268 7.26172 38.7406 7.99219 39.1359 9.01484C39.4367 9.78828 39.7977 10.957 39.8922 13.0969C39.9953 15.4172 40.0211 16.1133 40.0211 21.9828C40.0211 27.8609 39.9953 28.557 39.8922 30.8688C39.7977 33.0172 39.4367 34.1773 39.1359 34.9508C38.7406 35.9734 38.2594 36.7125 37.4945 37.4773C36.7211 38.2508 35.9906 38.7234 34.968 39.1188C34.1945 39.4195 33.0258 39.7805 30.8859 39.875C28.5656 39.9781 27.8695 40.0039 22 40.0039C16.1219 40.0039 15.4258 39.9781 13.1141 39.875C10.9656 39.7805 9.80547 39.4195 9.03203 39.1188C8.00938 38.7234 7.27031 38.2422 6.50547 37.4773C5.73203 36.7039 5.25938 35.9734 4.86406 34.9508C4.56328 34.1773 4.20234 33.0086 4.10781 30.8688C4.00469 28.5484 3.97891 27.8523 3.97891 21.9828C3.97891 16.1047 4.00469 15.4086 4.10781 13.0969C4.20234 10.9484 4.56328 9.78828 4.86406 9.01484C5.25938 7.99219 5.74063 7.25313 6.50547 6.48828C7.27891 5.71484 8.00938 5.24219 9.03203 4.84688C9.80547 4.54609 10.9742 4.18516 13.1141 4.09062C15.4258 3.9875 16.1219 3.96172 22 3.96172ZM22 0C16.0273 0 15.2797 0.0257812 12.9336 0.128906C10.5961 0.232031 8.98906 0.610156 7.59688 1.15156C6.14453 1.71875 4.91563 2.46641 3.69531 3.69531C2.46641 4.91563 1.71875 6.14453 1.15156 7.58828C0.610156 8.98906 0.232031 10.5875 0.128906 12.925C0.0257813 15.2797 0 16.0273 0 22C0 27.9727 0.0257813 28.7203 0.128906 31.0664C0.232031 33.4039 0.610156 35.0109 1.15156 36.4031C1.71875 37.8555 2.46641 39.0844 3.69531 40.3047C4.91563 41.525 6.14453 42.2812 7.58828 42.8398C8.98906 43.3813 10.5875 43.7594 12.925 43.8625C15.2711 43.9656 16.0188 43.9914 21.9914 43.9914C27.9641 43.9914 28.7117 43.9656 31.0578 43.8625C33.3953 43.7594 35.0023 43.3813 36.3945 42.8398C37.8383 42.2812 39.0672 41.525 40.2875 40.3047C41.5078 39.0844 42.2641 37.8555 42.8227 36.4117C43.3641 35.0109 43.7422 33.4125 43.8453 31.075C43.9484 28.7289 43.9742 27.9813 43.9742 22.0086C43.9742 16.0359 43.9484 15.2883 43.8453 12.9422C43.7422 10.6047 43.3641 8.99766 42.8227 7.60547C42.2813 6.14453 41.5336 4.91563 40.3047 3.69531C39.0844 2.475 37.8555 1.71875 36.4117 1.16016C35.0109 0.61875 33.4125 0.240625 31.075 0.1375C28.7203 0.0257813 27.9727 0 22 0Z" fill="white"/>
<path d="M22 10.6992C15.7609 10.6992 10.6992 15.7609 10.6992 22C10.6992 28.2391 15.7609 33.3008 22 33.3008C28.2391 33.3008 33.3008 28.2391 33.3008 22C33.3008 15.7609 28.2391 10.6992 22 10.6992ZM22 29.3305C17.9523 29.3305 14.6695 26.0477 14.6695 22C14.6695 17.9523 17.9523 14.6695 22 14.6695C26.0477 14.6695 29.3305 17.9523 29.3305 22C29.3305 26.0477 26.0477 29.3305 22 29.3305Z" fill="white"/>
<path d="M36.3859 10.2523C36.3859 11.7132 35.2 12.8906 33.7477 12.8906C32.2867 12.8906 31.1094 11.7046 31.1094 10.2523C31.1094 8.79136 32.2953 7.61401 33.7477 7.61401C35.2 7.61401 36.3859 8.79995 36.3859 10.2523Z" fill="white"/>
</svg>

<svg width="44" height="44" fill="none" xmlns="http://www.w3.org/2000/svg"><path d="M22 3.962c5.878 0 6.574.025 8.886.129 2.148.094 3.308.455 4.082.756 1.023.395 1.762.876 2.526 1.641.774.774 1.247 1.504 1.642 2.527.3.773.662 1.942.756 4.082.103 2.32.13 3.016.13 8.886 0 5.878-.027 6.574-.13 8.886-.094 2.148-.455 3.308-.756 4.082-.395 1.022-.877 1.761-1.642 2.526-.773.774-1.503 1.246-2.526 1.642-.774.3-1.942.662-4.082.756-2.32.103-3.017.129-8.886.129-5.878 0-6.574-.026-8.886-.129-2.148-.094-3.309-.456-4.082-.756-1.023-.396-1.762-.877-2.527-1.642-.773-.773-1.246-1.504-1.64-2.526-.302-.774-.663-1.942-.757-4.082-.103-2.32-.13-3.017-.13-8.886 0-5.878.027-6.574.13-8.886.094-2.149.455-3.309.756-4.082a6.81 6.81 0 011.641-2.527c.774-.773 1.504-1.246 2.527-1.641.773-.3 1.942-.662 4.082-.756 2.312-.104 3.008-.13 8.886-.13zM22 0c-5.973 0-6.72.026-9.066.129-2.338.103-3.945.481-5.337 1.023-1.452.567-2.681 1.314-3.902 2.543-1.229 1.22-1.976 2.45-2.543 3.893-.542 1.401-.92 3-1.023 5.337C.026 15.28 0 16.027 0 22c0 5.973.026 6.72.129 9.066.103 2.338.481 3.945 1.023 5.337.567 1.453 1.314 2.681 2.543 3.902a10.754 10.754 0 003.893 2.535c1.401.541 3 .92 5.337 1.022 2.346.104 3.094.13 9.066.13 5.973 0 6.72-.026 9.067-.13 2.337-.103 3.944-.48 5.337-1.022a10.754 10.754 0 003.892-2.535 10.754 10.754 0 002.536-3.893c.541-1.401.92-3 1.022-5.337.103-2.346.13-3.094.13-9.066 0-5.973-.027-6.72-.13-9.067-.103-2.337-.48-3.944-1.022-5.337-.542-1.46-1.29-2.69-2.518-3.91a10.753 10.753 0 00-3.893-2.535c-1.401-.541-3-.92-5.337-1.022C28.72.025 27.973 0 22 0z" fill="#fff"/><path d="M22 10.7c-6.24 0-11.3 5.06-11.3 11.3 0 6.24 5.06 11.3 11.3 11.3 6.24 0 11.3-5.06 11.3-11.3 0-6.24-5.06-11.3-11.3-11.3zm0 18.63a7.332 7.332 0 010-14.66 7.332 7.332 0 010 14.66zm14.386-19.078a2.639 2.639 0 11-2.638-2.638 2.644 2.644 0 012.638 2.638z" fill="#fff"/></svg>
